fs/mail_unread_28_filled.svg

<svg viewBox="0 0 28 28" fill="none" xmlns="http://www.w3.org/2000/svg" height="1em" width="1em">
  <path d="M3 10.124L13.6541 15.6654C13.871 15.7782 14.1293 15.7782 14.3462 15.6654L21.934 11.72C22.4217 11.901 22.9494 12 23.5002 12C24.0264 12 24.5315 11.9097 25.0008 11.7437L25.0002 19.75C25.0002 21.483 23.6437 22.8992 21.9346 22.9949L21.7502 23H6.25015C4.51712 23 3.10091 21.6435 3.0053 19.9344L3 19.75V10.124ZM6.25015 5L19.7576 5.00047C19.2792 5.71543 19.0002 6.57513 19.0002 7.5C19.0002 8.80587 19.5564 9.98182 20.4449 10.8038L14.0002 14.1547L3 8.434V8.25C3 6.51697 4.35661 5.10075 6.06573 5.00514L6.25015 5ZM23.5002 4C25.4332 4 27.0002 5.567 27.0002 7.5C27.0002 9.433 25.4332 11 23.5002 11C21.5672 11 20.0002 9.433 20.0002 7.5C20.0002 5.567 21.5672 4 23.5002 4Z" fill="#212121"/>
</svg>

<svg viewBox="0 0 28 28" fill="none" xmlns="http://www.w3.org/2000/svg" height="1em" width="1em">
  <path d="m3 10.124 10.654 5.541a.75.75 0 0 0 .692 0l7.588-3.945c.488.181 1.015.28 1.566.28.526 0 1.032-.09 1.5-.256v8.006a3.25 3.25 0 0 1-3.065 3.245L21.75 23H6.25a3.25 3.25 0 0 1-3.245-3.066L3 19.75v-9.626ZM6.25 5h13.508A4.48 4.48 0 0 0 19 7.5c0 1.306.556 2.482 1.445 3.304L14 14.154 3 8.435V8.25a3.25 3.25 0 0 1 3.066-3.245L6.25 5ZM23.5 4a3.5 3.5 0 1 1 0 7 3.5 3.5 0 0 1 0-7Z" fill="#212121"/>
</svg>
